X: 339
T:Art Wooten's Quadrille
% Nottingham Music Database
S:Trad, arr Phil Rowe
M:6/8
K:Bb
B,|"Bb"B,DF BAB|"Bb"BdB "F7"F2E|"Bb"DFB "D7"AcB|"G7"G3 -"Cm"GcB|"F7"AFA cAc|
e2c A2G|"F7"FAc ed^c|"Bb"d3 "F7"d2B,|"Bb"B,DF BAB|"Bb"BdB "F7"F2E|\
"Bb"DFB "D7"AcB|
"Eb"G3 -GcB|"F7"AFA cAc|e2c A2G|"F7"FAc ecA|"Bb"B3 B2f||
"Eb"g2g/2^f/2 "Ed"g2g/2=e/2|"Bb"fdB "F7"F2E|"Bb"DFB "Bb7"AcB|"Eb"G3 -G3|\
"Cm"g3 g2a|
gec A2G|"F7"FAc edc|"Bb7"d3 -d2f|"Eb"g2g/2^f/2 "Ed"g2g/2=e/2|\
"Bb"fdB "F7"F2E|
"Bb7"DFB "D7"AcB|"Eb"G3 -G3|"Cm"g3 g2a|gec A2G|"F7"FAc ecA|"Bb"B3 -B3||


